**kern	**kern
*staff2	*staff1
*clefF4	*clefG2
*k[f#c#g#]	*k[f#c#g#]
*M2/4	*M2/4
*A:	*A:
=-	=-
8r	16f#
.	16g#JJ
=201	=201
4r	16aLL
.	16b
.	16cc#
.	16ddJJ
16r	8eeL
(16c#LL	.
16B#	8eeJ
16c#JJ	.
=202	=202
16BLL	(4dd
16A	.
16G#	.
16F#JJ	.
8E)	16bLL)
.	16e
8r	16f#
.	16g#JJ
=203	=203
4r	16aLL
.	16b
.	16cc#
.	16ddJJ
16r	8eeL
(16c#LL	.
16B#	8eeJ
16c#JJ	.
=204	=204
16BLL	(4dd
16A	.
16G#	.
16F#JJ	.
8E)	16bLL)
.	16e
8r	16f#
.	16g#JJ
=205	=205
4r	16aLL
.	16b
.	16cc#
.	16ddJJ
8A 8c#	16eeLL
.	16a
8r	16b
.	16cc#JJ
=206	=206
4r	16ddLL
.	16ee
.	16ff#
.	16gg#JJ
8F# 8A 8d#	16aaLL
.	16ee
8r	16ff#
.	16gg#JJ
=207	=207
4r	16aaLL
.	16bb
.	16ccc#
.	16dddJJ
8EL 8A 8c#	8eeeL
8EJ 8B 8d	8gg#'J
=208	=208
4A 4c#	8aa'L
.	8ee'J
16r	8a'
16ELL	.
=	=
*-	*-
